src/topics/icons/couchbase.svg

<svg height="256" preserveAspectRatio="xMidYMid" viewBox="0 0 256 256" width="256" xmlns="http://www.w3.org/2000/svg"><path d="m128 0c-70.5740181 0-128 57.2326284-128 128 0 70.574018 57.2326284 128 128 128 70.574018 0 128-57.232628 128-128 0-70.7673716-57.425982-128-128-128zm86.429003 150.429003c0 7.734139-4.44713 14.501511-13.148036 16.048338-15.081571 2.706949-46.791541 4.253777-73.280967 4.253777s-58.1993958-1.546828-73.2809668-4.253777c-8.7009063-1.546827-13.1480362-8.314199-13.1480362-16.048338v-49.885196c0-7.7341393 5.9939577-14.8882179 13.1480362-16.0483387 4.4471299-.7734139 14.8882176-1.5468278 23.0090635-1.5468278 3.0936556 0 5.6072507 2.3202417 5.6072507 5.9939577v34.9969788l44.8580056-.966767 44.858007.966767v-34.9969788c0-3.673716 2.513595-5.9939577 5.60725-5.9939577 8.120846 0 18.561934.7734139 23.009064 1.5468278 7.347432 1.1601208 13.148036 8.3141994 13.148036 16.0483387-.386707 16.435045-.386707 33.256797-.386707 49.885196z" fill="#ed2226"/></svg>

<?xml version="1.0" encoding="UTF-8" standalone="no"?>
<svg width="256px" height="256px" viewBox="0 0 256 256" version="1.1" xmlns="http://www.w3.org/2000/svg" xmlns:xlink="http://www.w3.org/1999/xlink" preserveAspectRatio="xMidYMid">
    <g>
        <path d="M128,1.10016058e-14 C57.4259819,1.10016058e-14 0,57.2326284 0,128 C0,198.574018 57.2326284,256 128,256 C198.574018,256 256,198.767372 256,128 C256,57.2326284 198.574018,0 128,0 L128,1.10016058e-14 Z M214.429003,150.429003 C214.429003,158.163142 209.981873,164.930514 201.280967,166.477341 C186.199396,169.18429 154.489426,170.731118 128,170.731118 C101.510574,170.731118 69.8006042,169.18429 54.7190332,166.477341 C46.0181269,164.930514 41.570997,158.163142 41.570997,150.429003 L41.570997,100.543807 C41.570997,92.8096677 47.5649547,85.6555891 54.7190332,84.4954683 C59.1661631,83.7220544 69.6072508,82.9486405 77.7280967,82.9486405 C80.8217523,82.9486405 83.3353474,85.2688822 83.3353474,88.9425982 L83.3353474,123.939577 L128.193353,122.97281 L173.05136,123.939577 L173.05136,88.9425982 C173.05136,85.2688822 175.564955,82.9486405 178.65861,82.9486405 C186.779456,82.9486405 197.220544,83.7220544 201.667674,84.4954683 C209.015106,85.6555891 214.81571,92.8096677 214.81571,100.543807 C214.429003,116.978852 214.429003,133.800604 214.429003,150.429003 L214.429003,150.429003 Z" fill="#ED2226"></path>
    </g>
</svg>
